logos-light/br-klassik.svg

<?xml version="1.0" encoding="UTF-8" standalone="no"?>
<!-- Created with Inkscape (http://www.inkscape.org/) -->

<svg
   xmlns:dc="http://purl.org/dc/elements/1.1/"
   xmlns:cc="http://creativecommons.org/ns#"
   xmlns:rdf="http://www.w3.org/1999/02/22-rdf-syntax-ns#"
   xmlns:svg="http://www.w3.org/2000/svg"
   xmlns="http://www.w3.org/2000/svg"
   xmlns:sodipodi="http://sodipodi.sourceforge.net/DTD/sodipodi-0.dtd"
   xmlns:inkscape="http://www.inkscape.org/namespaces/inkscape"
   version="1.0"
   width="400.06586"
   height="400.06586"
   id="svg3195"
   inkscape:version="0.91pre3 r13670"
   sodipodi:docname="br-klassik.svg">
  <metadata
     id="metadata17">
    <rdf:RDF>
      <cc:Work
         rdf:about="">
        <dc:format>image/svg+xml</dc:format>
        <dc:type
           rdf:resource="http://purl.org/dc/dcmitype/StillImage" />
      </cc:Work>
    </rdf:RDF>
  </metadata>
  <sodipodi:namedview
     pagecolor="#ffffff"
     bordercolor="#666666"
     borderopacity="1"
     objecttolerance="10"
     gridtolerance="10"
     guidetolerance="10"
     inkscape:pageopacity="0"
     inkscape:pageshadow="2"
     inkscape:window-width="1920"
     inkscape:window-height="1017"
     id="namedview15"
     showgrid="false"
     inkscape:zoom="0.58990288"
     inkscape:cx="200.03293"
     inkscape:cy="200.03293"
     inkscape:window-x="-8"
     inkscape:window-y="-8"
     inkscape:window-maximized="1"
     inkscape:current-layer="svg3195" />
  <defs
     id="defs3197" />
  <g
     id="g4155">
    <polygon
       points="179.338,249.806 179.338,251.672 180.115,251.672 180.115,252.195 178.745,252.195 178.745,252.195 178.745,249.806 "
       transform="matrix(20.747076,0,0,20.747076,-3605.4787,-4880.6148)"
       id="polygon14"
       style="fill:#c90119;fill-opacity:1;fill-rule:nonzero" />
    <path
       d="m 172.66738,351.694 -3.0602,-8.6578 -19.1454,0 -3.15563,8.6578 -12.39014,0 18.40057,-49.55856 14.57068,0 18.30513,49.55856 -13.52501,0 z m -10.29885,-29.25341 c -0.86308,-2.28426 -1.82989,-5.14526 -2.3859,-7.34238 l -0.10168,0 c -0.56431,2.19712 -1.33196,4.77184 -2.18882,7.07062 l -4.37555,11.99592 13.32792,0 -4.27597,-11.72416 z"
       id="path16"
       style="fill:#c90119;fill-opacity:1;fill-rule:nonzero"
       inkscape:connector-curvature="0" />
    <path
       d="m 202.97886,352.75206 c -3.14111,0 -6.96894,-0.47717 -9.71378,-1.15768 l 0.46058,-10.8611 c 2.8631,1.15561 6.5872,1.8216 10.48971,1.8216 4.09756,0 7.5312,-1.90873 7.5312,-5.62657 0,-7.53329 -19.93794,-3.33201 -19.93794,-19.53548 0,-9.7283 7.35692,-16.20555 20.98359,-16.20555 2.67845,0 6.29466,0.37345 9.06233,0.76141 l -0.38175,10.29058 c -2.67845,-0.76142 -6.29466,-1.23652 -9.14945,-1.23652 -5.23864,0 -7.42746,1.99795 -7.42746,5.04985 0,7.05607 20.30309,4.09959 20.30309,19.3383 0,10.40052 -8.39427,17.36116 -22.22012,17.36116 l 0,0 z"
       id="path18"
       style="fill:#c90119;fill-opacity:1;fill-rule:nonzero"
       inkscape:connector-curvature="0" />
    <path
       d="m 245.13691,352.75206 c -3.15355,0 -6.95235,-0.47717 -9.72,-1.15768 l 0.47511,-10.8611 c 2.85479,1.15561 6.58097,1.8216 10.48141,1.8216 4.10586,0 7.5312,-1.90873 7.5312,-5.62657 0,-7.53329 -19.92134,-3.33201 -19.92134,-19.53548 0,-9.7283 7.34031,-16.20555 20.96906,-16.20555 2.67015,0 6.29466,0.37345 9.05403,0.76141 l -0.36722,10.29058 c -2.67845,-0.76142 -6.30089,-1.23652 -9.16399,-1.23652 -5.23864,0 -7.44197,1.99795 -7.44197,5.04985 0,7.05607 20.30931,4.09959 20.30931,19.3383 0,10.40052 -8.37974,17.36116 -22.2056,17.36116 z"
       id="path20"
       style="fill:#c90119;fill-opacity:1;fill-rule:nonzero"
       inkscape:connector-curvature="0" />
    <polygon
       points="187.837,252.195 187.244,252.195 187.244,249.806 187.244,249.806 187.837,249.806 "
       transform="matrix(20.747076,0,0,20.747076,-3605.4787,-4880.6148)"
       id="polygon22"
       style="fill:#c90119;fill-opacity:1;fill-rule:nonzero" />
    <polygon
       points="189.173,252.195 188.581,252.195 188.581,249.806 189.173,249.806 189.173,250.831 189.959,249.806 190.685,249.806 189.766,250.955 190.74,252.195 189.959,252.195 189.959,252.195 189.173,251.111 "
       transform="matrix(20.747076,0,0,20.747076,-3605.4787,-4880.6148)"
       id="polygon24"
       style="fill:#c90119;fill-opacity:1;fill-rule:nonzero" />
    <polygon
       points="176.712,252.195 176.12,252.195 176.12,249.806 176.712,249.806 176.712,250.831 177.498,249.806 178.224,249.806 177.305,250.955 178.279,252.195 177.498,252.195 177.498,252.195 176.712,251.111 "
       transform="matrix(20.747076,0,0,20.747076,-3605.4787,-4880.6148)"
       id="polygon26"
       style="fill:#c90119;fill-opacity:1;fill-rule:nonzero" />
    <polygon
       points="192.923,235.386 192.923,254.384 173.925,254.384 173.925,254.384 173.925,235.386 "
       transform="matrix(20.747076,0,0,20.747076,-3605.4787,-4880.6148)"
       id="polygon28"
       style="fill:none;fill-rule:nonzero;stroke:#e4e4e4;stroke-width:0.285;stroke-opacity:1" />
    <path
       d="m 153.43484,266.67245 -15.22421,0 0,-98.88885 c 0.1971,0 6.83617,-0.20542 10.96484,-0.0809 18.32589,0.57056 25.98156,7.8984 26.24504,19.98149 0.16184,7.33411 -1.25104,14.46279 -8.41708,20.18692 -6.00835,4.77181 -15.2159,5.75938 -15.2159,5.75938 l 0,3.1847 c 0,0 11.90881,1.52906 17.77817,4.54359 11.04573,5.67224 14.54368,13.29266 14.54368,23.74506 0,15.89637 -15.85283,21.56862 -30.67454,21.56862 l 0,0 z m 27.24922,-53.67889 c 10.45859,-6.19093 16.89225,-15.72004 16.89225,-29.28243 0,-17.09143 -10.86108,-32.73263 -46.89254,-32.73263 -17.44206,0 -34.28454,0.19085 -34.28454,0.19085 l 0,134.21076 30.75547,0 c 39.09787,0 59.75365,-14.41924 59.75365,-41.68919 0,-16.22628 -10.18058,-26.97117 -26.22429,-30.69736 z"
       id="path30"
       style="fill:#e4e4e4;fill-opacity:1;fill-rule:nonzero"
       inkscape:connector-curvature="0" />
    <path
       d="m 240.88377,219.70111 c 17.03127,-5.92747 26.71393,-18.59768 26.9048,-35.59166 0.0664,-4.56017 -1.7635,-15.25323 -10.08515,-22.35289 -5.5042,-4.69297 -14.65366,-10.40051 -40.29912,-11.03121 -5.31333,-0.13073 -21.02924,0.46266 -21.02924,0.46266 0,0 -0.006,0.88384 0.0519,0.94402 4.56644,3.53529 9.39843,9.20754 11.74078,15.86734 2.45853,-0.0871 6.16189,-0.29254 9.82166,-0.0871 10.30508,0.54149 15.39849,2.26762 20.0479,5.92741 4.65357,3.66808 7.09136,9.95444 7.13493,15.66406 0.0664,8.44612 -3.98137,16.51054 -15.23044,21.09979 -9.11211,3.70333 -20.46491,4.07057 -20.46491,4.07057 l 0,2.83197 c 0,0 6.59549,3.14732 13.18269,11.85695 5.67847,7.50837 38.60824,55.99015 38.60824,55.99015 l 27.22636,0 c 0,0 -44.39042,-61.37818 -47.61036,-65.65204 l 0,0 z"
       id="path32"
       style="fill:#e4e4e4;fill-opacity:1;fill-rule:nonzero"
       inkscape:connector-curvature="0" />
  </g>
</svg>

<?xml version="1.0" encoding="UTF-8" standalone="no"?>
<!-- Created with Inkscape (http://www.inkscape.org/) -->
<svg
   xmlns:svg="http://www.w3.org/2000/svg"
   xmlns="http://www.w3.org/2000/svg"
   version="1.0"
   width="400.06586"
   height="400.06586"
   id="svg3195">
  <defs
     id="defs3197" />
  <g
     transform="translate(-1.350071e-4,-7.3043098e-5)"
     id="g2401">
    <polygon
       points="178.745,252.195 178.745,249.806 179.338,249.806 179.338,251.672 180.115,251.672 180.115,252.195 178.745,252.195 "
       transform="matrix(20.747076,0,0,20.747076,-3605.4786,-4880.6147)"
       id="polygon14"
       style="fill:#c90119;fill-opacity:1;fill-rule:nonzero" />
    <path
       d="M 172.66752,351.69407 L 169.60732,343.03627 L 150.46192,343.03627 L 147.30629,351.69407 L 134.91615,351.69407 L 153.31672,302.13551 L 167.8874,302.13551 L 186.19253,351.69407 L 172.66752,351.69407 z M 162.36867,322.44066 C 161.50559,320.1564 160.53878,317.2954 159.98277,315.09828 L 159.88109,315.09828 C 159.31678,317.2954 158.54913,319.87012 157.69227,322.1689 L 153.31672,334.16482 L 166.64464,334.16482 L 162.36867,322.44066 z"
       id="path16"
       style="fill:#c90119;fill-opacity:1;fill-rule:nonzero" />
    <path
       d="M 202.979,352.75213 C 199.83789,352.75213 196.01006,352.27496 193.26522,351.59445 L 193.7258,340.73335 C 196.5889,341.88896 200.313,342.55495 204.21551,342.55495 C 208.31307,342.55495 211.74671,340.64622 211.74671,336.92838 C 211.74671,329.39509 191.80877,333.59637 191.80877,317.3929 C 191.80877,307.6646 199.16569,301.18735 212.79236,301.18735 C 215.47081,301.18735 219.08702,301.5608 221.85469,301.94876 L 221.47294,312.23934 C 218.79449,311.47792 215.17828,311.00282 212.32349,311.00282 C 207.08485,311.00282 204.89603,313.00077 204.89603,316.05267 C 204.89603,323.10874 225.19912,320.15226 225.19912,335.39097 C 225.19912,345.79149 216.80485,352.75213 202.979,352.75213 L 202.979,352.75213 z"
       id="path18"
       style="fill:#c90119;fill-opacity:1;fill-rule:nonzero" />
    <path
       d="M 245.13705,352.75213 C 241.9835,352.75213 238.1847,352.27496 235.41705,351.59445 L 235.89216,340.73335 C 238.74695,341.88896 242.47313,342.55495 246.37357,342.55495 C 250.47943,342.55495 253.90477,340.64622 253.90477,336.92838 C 253.90477,329.39509 233.98343,333.59637 233.98343,317.3929 C 233.98343,307.6646 241.32374,301.18735 254.95249,301.18735 C 257.62264,301.18735 261.24715,301.5608 264.00652,301.94876 L 263.6393,312.23934 C 260.96085,311.47792 257.33841,311.00282 254.47531,311.00282 C 249.23667,311.00282 247.03334,313.00077 247.03334,316.05267 C 247.03334,323.10874 267.34265,320.15226 267.34265,335.39097 C 267.34265,345.79149 258.96291,352.75213 245.13705,352.75213 z"
       id="path20"
       style="fill:#c90119;fill-opacity:1;fill-rule:nonzero" />
    <polygon
       points="187.244,249.806 187.837,249.806 187.837,252.195 187.244,252.195 187.244,249.806 "
       transform="matrix(20.747076,0,0,20.747076,-3605.4786,-4880.6147)"
       id="polygon22"
       style="fill:#c90119;fill-opacity:1;fill-rule:nonzero" />
    <polygon
       points="189.959,252.195 189.173,251.111 189.173,252.195 188.581,252.195 188.581,249.806 189.173,249.806 189.173,250.831 189.959,249.806 190.685,249.806 189.766,250.955 190.74,252.195 189.959,252.195 "
       transform="matrix(20.747076,0,0,20.747076,-3605.4786,-4880.6147)"
       id="polygon24"
       style="fill:#c90119;fill-opacity:1;fill-rule:nonzero" />
    <polygon
       points="177.498,252.195 176.712,251.111 176.712,252.195 176.12,252.195 176.12,249.806 176.712,249.806 176.712,250.831 177.498,249.806 178.224,249.806 177.305,250.955 178.279,252.195 177.498,252.195 "
       transform="matrix(20.747076,0,0,20.747076,-3605.4786,-4880.6147)"
       id="polygon26"
       style="fill:#c90119;fill-opacity:1;fill-rule:nonzero" />
    <polygon
       points="173.925,254.384 173.925,235.386 192.923,235.386 192.923,254.384 173.925,254.384 "
       transform="matrix(20.747076,0,0,20.747076,-3605.4786,-4880.6147)"
       id="polygon28"
       style="fill:none;fill-rule:nonzero;stroke:#000000;stroke-width:0.285;stroke-opacity:1" />
    <path
       d="M 153.43498,266.67252 L 138.21077,266.67252 L 138.21077,167.78367 C 138.40787,167.78367 145.04694,167.57825 149.17561,167.70276 C 167.5015,168.27332 175.15717,175.60116 175.42065,187.68425 C 175.58249,195.01836 174.16961,202.14704 167.00357,207.87117 C 160.99522,212.64298 151.78767,213.63055 151.78767,213.63055 L 151.78767,216.81525 C 151.78767,216.81525 163.69648,218.34431 169.56584,221.35884 C 180.61157,227.03108 184.10952,234.6515 184.10952,245.1039 C 184.10952,261.00027 168.25669,266.67252 153.43498,266.67252 L 153.43498,266.67252 z M 180.6842,212.99363 C 191.14279,206.8027 197.57645,197.27359 197.57645,183.7112 C 197.57645,166.61977 186.71537,150.97857 150.68391,150.97857 C 133.24185,150.97857 116.39937,151.16942 116.39937,151.16942 L 116.39937,285.38018 L 147.15484,285.38018 C 186.25271,285.38018 206.90849,270.96094 206.90849,243.69099 C 206.90849,227.46471 196.72791,216.71982 180.6842,212.99363 z"
       id="path30"
       style="fill:#000000;fill-opacity:1;fill-rule:nonzero" />
    <path
       d="M 240.88391,219.70118 C 257.91518,213.77371 267.59784,201.1035 267.78871,184.10952 C 267.8551,179.54935 266.02521,168.85629 257.70356,161.75663 C 252.19936,157.06366 243.0499,151.35612 217.40444,150.72542 C 212.09111,150.59469 196.3752,151.18808 196.3752,151.18808 C 196.3752,151.18808 196.36898,152.07192 196.42706,152.1321 C 200.9935,155.66739 205.82549,161.33964 208.16784,167.99944 C 210.62637,167.91232 214.32973,167.7069 217.9895,167.91232 C 228.29458,168.45381 233.38799,170.17994 238.0374,173.83973 C 242.69097,177.50781 245.12876,183.79417 245.17233,189.50379 C 245.23872,197.94991 241.19096,206.01433 229.94189,210.60358 C 220.82978,214.30691 209.47698,214.67415 209.47698,214.67415 L 209.47698,217.50612 C 209.47698,217.50612 216.07247,220.65344 222.65967,229.36307 C 228.33814,236.87144 261.26791,285.35322 261.26791,285.35322 L 288.49427,285.35322 C 288.49427,285.35322 244.10385,223.97504 240.88391,219.70118 L 240.88391,219.70118 z"
       id="path32"
       style="fill:#000000;fill-opacity:1;fill-rule:nonzero" />
  </g>
</svg>
